!!!!SEGMENT: pl-wnifc--6854-n--001_kozlowski-jozef--polonaise-in-g.krn
!!!cenid: 18xx:3966
!!!COM: Kozłowski, Józef
!!!COM-rismID: pe30003850
!!!CDT: 1757-1831
!!!CNT: Polish
!!!OTL: Polonaise in G
!!!PDT:
!!!AGN:
!!!SMS-siglum: PL-Wnifc
!!!SMS-shelfmark: 6854/n
!!!SMS-shelfwork: 001 W
!!!SMS-variant:
!!!SMS-altvar:
!!!NIFC-rismSourceID: 1001159811
!!!NIFC-rismChildID: 1001159821
!!!NIFC-islandoraID: nifc:214685
!!!URL-pdf-islandora: https://repozytorium.nifc.pl/islandora/object/nifc%3A214685/datastream/PDF/view
!!!URL-scan: https://polish.musicsources.pl/pl/lokalizacje/galeria/klocki-introligatorskie/689 @EN{Scan on Polish Music Sources Website} @PL{Skany w portalu Dziedzictwo Muzyki Polskiej w otwartym dostępie}
!!!ONB-nifc: UWAGA: skan 18
!!!AIN: 2 piano
!!!key: G
**kern	**kern	**dynam
*part2	*part1	*part1
*staff2	*staff1	*
*I"Piano Forte	*I"Piano Forte	*
*I'pf	*I'pf	*
*ICklav	*ICklav	*
*Ipiano	*Ipiano	*
*clefF4	*clefG2	*
*k[f#]	*k[f#]	*
*G:	*G:	*
*M3/4	*M3/4	*
!	!LO:TX:b:i:t=dolce	!
8r	16.b\LL	p
.	32cc\JJk	.
=1	=1	=1
!	!	!LO:DY:b=2
(8G\L 8B	8dd`\L	p
8d\	(16.b`\L	.
.	32cc\JJk)	.
8G\ 8B	8dd`\L	.
8d\	(16.b\L	.
.	32cc\JJk)	.
8G\ 8B	8dd`\L	.
.	16qff#/	.
8d\J)	8gg`\J	.
=2	=2	=2
*tremolo	*	*
(8G\L 8B	4.dd^\	.
8d\	.	.
8G\ 8B	.	.
8d\	(16cc#X\LL	.
.	16dd\JJ	.
8G\ 8B	16ee\LL	.
.	16dd\	.
8d\J)	16ccn\	.
.	16b\JJ)	.
=3	=3	=3
*^	*	*^
!	!	!	!LO:HP:a	!LO:HP:b=2
(<8F#/L	2D\	(16b\LL	<	<
.	.	16a\J)	.	.
8A/	.	8a`\J	.	.
8F#/	.	8a^`\L	.	.
8A/)	.	(32b\LL	.	.
.	.	32a\	.	.
.	.	32g#X\	.	.
.	.	32a\JJJ)	.	.
(<8G/	4D\	8b`\L	.	.
8B/J)	.	8b`\J	[[	[[
=4	=4	=4	=4	=4
!	!	!	!LO:HP:a	!LO:HP:b=2
4c/	4D\ 4A 4c	8.dd\L	>	>
.	.	16cc\Jk	.	.
8r	8ryy	4a\	]	]
!	!	!	!	!LO:HP:b=2
(<8F#/L 8A	4D\	.	.	<
8G/) 8B	.	8r	.	.
!	!	!	!LO:DY:a:t=F	!
8A`</J 8c	8D\	(16.b\LL	f	.
.	.	32cc\JJk)	.	[[
*v	*v	*	*v	*v
=5	=5	=5
!	!	!LO:DY:t=F
!	!	!LO:DY:b=2
16G\LL	8dd`\L	f
16d\	.	.
16B\	(16.b\L	.
16d\JJ	.	.
.	32cc\JJk)	.
*rep	*	*
16G\LL	8dd`\L	.
16d\	.	.
16B\	(16.b\L	.
16d\JJ	.	.
.	32cc\JJk)	.
*Xrep	*	*
*rep	*	*
16G\LL	8dd`\L	.
16d\	.	.
.	16qff#/	.
16B\	8gg\J	.
16d\JJ	.	.
*Xrep	*	*
!!LO:LB:g=original	!	!
=6	=6	=6
*	*^	*
16G\LL	8dd`\L	4ryy	.
16d\	.	.	.
16B\	8gg`\J	.	.
16d\JJ	.	.	.
16G\LL	4bb`^\ 4.b	4.ryy	.
16e\	.	.	.
16B\	.	.	.
16e\JJ	.	.	.
*rep	*	*	*
16G\LL	(16aa\LL	.	.
16e\	16gg\)	.	.
16B\	16ff#`\	8ryy	.
16e\JJ	16ee`\JJ	.	.
*Xrep	*	*	*
*	*v	*v	*
*clefG2	*	*
=7	=7	=7
*^	*	*
!	!	!	!LO:DY:t=F
16A/LL	4ryy	8dd`\L	f
16f#/	.	.	.
16d/	.	(16dd\L	.
16f#/JJ	.	16ff#\JJ)	.
(<4d/ 4f#	2A\	8.a^\L 8.aa	.
.	.	16ff#\Jk	.
4e/) 4g	.	16aa\LL	.
.	.	16gg\	.
.	.	16ee`\	.
.	.	16cc#X`\JJ	.
*v	*v	*	*
=	=	=
!	!LO:TX:t=P:problem:przekreślony obiegnik	!
8A`/L 8d 8f#	8ddsS\L	.
8A`/J 8e 8g	16ff#\L	.
.	16ee\JJ	.
8r	(4cc#X\ 4ee	.
8A`/L 8e 8g	.	.
8A`/J 8d 8f#	8dd`\)	.
=8:|!|:	=8:|!|:	=8:|!|:
8r	8dd`\	.
*clefF4	*	*
=9	=9	=9
*^	*	*^
!	!	!	!LO:DY:t=F	!LO:DY:b=2
!	!	!	!	!LO:DY:t=F
4DD`/ 4D	4ryy	(16a\LL 16ccn	f	f
.	.	16b\ 16dd	.	.
.	.	16a\ 16cc	.	.
.	.	16g\JJ) 16b	.	.
!	!	!	!LO:HP:a	!
8r	8ryy	8f#`\ 8a	<	.
!	!	!	!	!LO:HP:b=2
(<8F#/L 8A	4D\	8f#`\L 8a	.	<
8G/ 8B	.	8g`\ 8b	.	.
8A/J) 8c	8D\	8a`\J 8cc	.	[[
*v	*v	*	*v	*v
=10	=10	=10
*	*	*^
(8B\L 8d	8b`\L 8dd	[	p
8d\	(16.ff#\L	.	.
.	32gg\JJk)	.	.
8B\ 8d	(4.b^<\ 4.dd	.	.
8d\	.	.	.
8B\ 8d	.	.	.
8d\J)	8b\)	.	.
*	*	*v	*v
=11	=11	=11
*^	*	*^
!	!	!	!LO:DY:t=F	!
4DD/ 4D	4ryy	(16a\LL 16cc	f	.
.	.	16b\ 16dd	.	.
.	.	16a\ 16cc	.	.
.	.	16g\JJ) 16b	.	.
8r	8ryy	8f#`\ 8a	.	.
!	!	!	!LO:HP:a	!LO:HP:b=2
8F#/L 8A	4D\	16f#/LL 16a	<	<
.	.	16d/JJ	.	.
8G/ 8B	.	16g/LL 16b	.	.
.	.	16d/	.	.
8A/J 8c	8D\	16a/ 16cc	.	.
.	.	16d/JJ	[[	[[
*v	*v	*	*v	*v
=12	=12	=12
*	*	*^
!	!	!LO:DY:t=F	!LO:DY:t=F
!	!	!	!LO:DY:b=2
!	!	!	!LO:HP:b=2
*Xtremolo	*	*	*
.	16qee/	f >	f >
(8G\L 8B	(16dd\LL	.	.
.	16cc#X\)	.	.
8d\)	16dd`\	.	.
.	16gg`\JJ	.	.
.	16qee/	.	.
(8G\ 8B	16dd\LL	.	.
.	16cc#\	.	.
8d\J)	16dd`\	.	.
.	16gg`\JJ	.	.
8G\ 8B	8dd`\L	]	]
*	*8va	*	*
8r	(16.bb\L	.	.
.	32cccn\JJk)	.	.
*	*	*v	*v
=13	=13	=13
*	*	*^
*tremolo	*	*	*
!	!	!	!LO:DY:b=2
(8G\L 8B	8ddd`\L	p	p
8d\	(16.bb\L	.	.
.	32ccc\JJk)	.	.
8G\ 8B	8ddd`\L	.	.
8d\	(16.bb\L	.	.
.	32ccc\JJk)	.	.
8G\ 8B	8ddd`\L	.	.
8d\J)	8ggg`\J	.	.
*	*X8va	*	*
*	*	*v	*v
!!LO:LB:g=original	!	!
=14	=14	=14
*	*8va	*
(8G\L 8B	4.ddd^\	.
8d\	.	.
8G\ 8B	.	.
8d\	(16ccc#X\LL	.
.	16ddd\JJ	.
8G\ 8B	16eee\LL	.
.	16ddd\	.
8d\J)	16cccn\	.
.	16bb\JJ)	.
=15	=15	=15
*^	*	*
(<8F#/L	2D\	(>16bb/LL	<
.	.	16aa/	.
8A/	.	16gg#X/	.
.	.	16aa/JJ	.
8F#/	.	16gg#/LL	.
.	.	16aa/	.
8A/)	.	16bb/	.
.	.	16aa/JJ	.
(<8G/	4D\	16cccn/LL	.
.	.	16bb/	.
8B/J)	.	16aa#X/	.
.	.	16bb/JJ)	[[
=16	=16	=16	=16
*	*	*^	*^
4A/ 4c	4D\	(8.ddd\L	4ryy	>	.
.	.	16ccc\Jk)	.	.	.
!	!	!	!	!	!LO:HP:b=2
8r	8ryy	4.aa/	4.aa\	]	<
(<8F#/L 8A	4D\	.	.	.	.
8G/) 8B	.	.	.	.	.
*v	*v	*	*	*v	*v
*	*v	*v	*
*	*X8va	*
*^	*^	*
!	!	!LO:TX:a:t=loco	!	!LO:DY:t=F
8A`/J 8c	8D\	(16.b/LL	8ryy	[[ f
.	.	32cc/JJk)	.	.
*v	*v	*	*	*
*	*v	*v	*
=17	=17	=17
!	!	!LO:DY:b=2
!	!	!LO:DY:t=F
16G\LL	8dd`\L	[ f <
16d\	.	.
16B\	(16.b\L	.
16d\JJ	.	.
.	32cc\JJk)	.
*rep	*	*
16G\LL	8dd`\L	.
16d\	.	.
16B\	(16.b\L	.
16d\JJ	.	.
.	32cc\JJk)	.
*Xrep	*	*
*rep	*	*
16G\LL	8dd`\L	.
16d\	.	.
16B\	8gg`\J	[[
16d\JJ	.	.
*Xrep	*	*
=18	=18	=18
*	*	*^
!	!	!	!LO:HP:b=2
(2G\ 2B 2d	(16dd\LL	>	>
.	16gg\)	.	.
.	16bb`\	.	.
.	16bb`\JJ	.	.
.	(16bb\LL	.	.
.	16aa\	.	.
.	16ccc\	.	.
.	16bb\JJ	.	.
4C\) 4E 4A	16aa\LL	.	]]
.	16gg\)	.	.
.	16ff#`\	.	.
.	16ee`\JJ	]]	.
*	*	*v	*v
=19	=19	=19
*Xtremolo	*	*
(8D\L 8G	(16ee\LL	]
.	16dd\J)	.
8B\)	8.cc^<`\J	.
(8D\ 8G	.	.
.	16gg`\LL	.
8B\J)	16dd`\	.
.	16b`\JJ	.
4D^<\ 4A 4c	(16dd\LL	.
.	16cc\)	.
.	16b`\	.
.	16a`\JJ	.
=	=	=
!	!LO:TX:t=P:problem:przekreślony obiegnik	!
8D`\L 8G 8B	8gS\L	.
8D`\J 8A 8c	16.b\L	.
.	32a\JJk	.
8r	4f#\ 4a	.
(8D\L 8A 8c	.	.
8G\J) 8B	8g\	.
!!LO:LB:g=original	!	!
=20:|!	=20:|!	=20:|!
*clefF4	*clefG2	*
*k[]	*k[]	*
*M3/4	*M3/4	*
!	!LO:TX:a:B:t=TRIO.	!
8r	(16.cc\LL 16.ee	p
.	32dd\JJk) 32ffn	.
*clefG2	*	*
=21	=21	=21
8c`/ 8e 8g	8ee`\L 8gg	.
8r	(16.cc\L 16.ee	.
.	32dd\JJk) 32ff	.
8c`/ 8e 8g	8ee`\L 8gg	.
8r	(16.cc\L 16.ee	.
.	32dd\JJk) 32ff	.
8c`/L 8e 8g	8ee`\L 8gg	.
8c`/J 8f 8a	8ff`\J 8aa	.
=22	=22	=22
*^	*	*
(>2c^/ (>2e (>2g	2c^\	(4.ee^<\ 4.gg	.
.	.	8dd\ 8ff	.
*v	*v	*	*
*8ba	*	*
*^	*	*
8E/) 8G)	8C\)	8cc`\) 8ee	.
!	!	!LO:TX:a:t=Corni	!
8r	8ryy	16.c/LL 16.e	.
.	.	32d/JJk 32f	.
*v	*v	*	*
*X8ba	*	*
*clefF4	*	*
=23	=23	=23
8C`\ 8E 8G	8e`/L 8g	.
8r	(16.c/L 16.e	.
.	32d/JJk) 32f	.
8C`\ 8E 8G	8e`/L 8g	.
8r	(16.c/L 16.e	.
.	32d/JJk) 32f	.
8C`\L 8E 8G	(16e/LL 16g	.
.	16c/) 16e	.
8C`\J 8F 8A	16a`/ 16cc	.
.	16f`/JJ 16a	.
=24	=24	=24
*^	*	*
[2G/	[>2C^\ [>2E	8e`/ 8g	.
.	.	4e^/ 4g	.
!	!	!LO:TUP:b:problem:klamra łukowa	!
.	.	24f/LL 24a	.
.	.	24e/ 24g	.
.	.	24d/JJ 24f	.
8G`/]	8C\] 8E]	8c`>/ 8e	.
8r	8ryy	(16.ee\LL	.
.	.	32ff\JJk)	.
*v	*v	*	*
!!LO:PB:g=original	!	!
=25	=25	=25
*	*	*^
*	*	*	*^
!	!	!LO:DY:a	!LO:DY:b	!LO:DY:t=sFz
!	!	!	!	!LO:DY:b=2
8c`\L 8e	(16gg^<\LL	p	p	sfz
.	16ccc\)	.	.	.
8G`\	16gg`\	.	.	.
!	!LO:TX:b:t=marqué	!	!	!
.	16gg`\JJ	.	.	.
.	16qaa/	.	.	.
8c`\ 8e	16gg`\LL	.	.	.
.	16ff#X`\	.	.	.
8G`\	16gg`\	.	.	.
.	16aa`\JJ	.	.	.
8c`\ 8e	16gg`\LL	.	.	.
.	16ff#`\	.	.	.
8G`\J	16gg`\	.	.	.
.	16ee`\JJ	.	.	.
*	*	*	*v	*v
=26	=26	=26	=26
*tremolo	*	*	*
.	16qdd/	.	.
!	!	!	!LO:DY:t=sFz
!	!	!	!LO:DY:b=2
(8c^\L 8e	16cc`\LL	.	sfz
.	16b`\	.	.
8G\	16cc`\	.	.
.	16dd`\JJ	.	.
8c\ 8e	16ee`\LL	.	.
.	16dd`\	.	.
8G\	16ee`\	.	.
.	16ffn`\JJ	.	.
8c\ 8e	16gg`\LL	.	.
.	16ff#X`\	.	.
8G\J)	16gg`\	.	.
.	16ee`\JJ	.	.
=27	=27	=27	=27
!	!	!	!LO:DY:b=2
!	!	!	!LO:DY:t=sFz
(8B\L 8fn	16ffn`\LL	.	sfz
.	16ee`\	.	.
8G\	16dd`\	.	.
.	16cc#X`\JJ	.	.
8B\ 8f	16dd`\LL	.	.
.	16cc#`\	.	.
8G\	16dd`\	.	.
.	16ee`\JJ	.	.
.	16qgg/	.	.
8B\ 8f	16ffn`\LL	.	.
.	16ee`\	.	.
8G\J)	16ff`\	.	.
.	16aa`\JJ	.	.
=28	=28	=28	=28
*Xtremolo	*	*	*
!	!	!	!LO:DY:t=sFz
!	!	!	!LO:DY:b=2
.	16qaa/	.	sfz
(8c^\L 8e	(16gg\LL	.	.
.	16ff#X\)	.	.
8G\	16gg`\	.	.
.	16ccc`\JJ	.	.
8c\ 8e	4.gg\	>	.
8G\	.	.	.
8c`\) 8e	.	.	.
8G`\J	(16.ee\LL	]	.
.	32ffn\JJk)	.	.
=29	=29	=29	=29
!	!	!	!LO:DY:t=sFz
!	!	!	!LO:DY:b=2
8c`\L 8e	(16gg\LL	.	sfz
.	16ccc\)	.	.
8G`\	16gg`\	.	.
.	16gg`\JJ	.	.
.	16qaa/	.	.
8c`\ 8e	16gg`\LL	.	.
.	16ff#X`\	.	.
8G`\	16gg`\	.	.
.	16aa`\JJ	.	.
8c`\ 8e	16gg`\LL	.	.
.	16ff#`\	.	.
8G`\J	16gg`\	.	.
.	16ee`\JJ	.	.
=30	=30	=30	=30
*tremolo	*	*	*
!	!	!	!LO:DY:t=sFz
!	!	!	!LO:DY:b=2
.	16qdd/	.	sfz
(8c^\L 8e	16cc`\LL	.	.
.	16b`\	.	.
8G\	16cc`\	.	.
.	16dd`\JJ	.	.
8c\ 8e	16ee`\LL	.	.
.	16dd`\	.	.
8G\	16ee`\	.	.
.	16ffn`\JJ	.	.
8c\ 8e	16gg`\LL	.	.
.	16ff#X`\	.	.
8G\J)	16gg`\	.	.
.	16ee`\JJ	.	.
!!LO:LB:g=original	!	!	!
=31	=31	=31	=31
(2G^<\ 2B 2f	16ffn`\	.	.
!	!LO:TX:t=P:problem:przekreślony obiegnik	!	!
.	(16ffsS\LL	>	.
.	16aa\	.	.
.	16ff\JJ	.	.
.	16ee\LL	.	.
.	16dd\	.	.
.	16ff\	.	.
.	16ee\JJ	.	.
4G\) 4B 4d	16cc\LL	.	.
.	16b\	.	.
.	16dd\	.	.
.	16f\JJ)	]]	.
*	*	*v	*v
=	=	=
4c\	(16e/LL	.
.	16g/	.
.	16cc/)	.
.	16d`/JJ 16f 16b	.
8r	(<4d/ 4f (4b	.
(8G\L	.	.
8C\J)	8e/) 8cc)	.
=32:|!|:	=32:|!|:	=32:|!|:
8ryy	(16.ee\LL	<
.	32gg\JJk)	.
*clefG2	*	*
=33	=33	=33
*	*	*^
*Xtremolo	*	*	*
!	!	!	!LO:DY:t=sFz
8B`/L 8d#X 8f#X	16.bb`\LL	.	sfz
.	(32ccc\K	.	.
8B`/ 8d# 8f#	16.bb\)	.	.
.	(32ccc\JJk	.	.
8B`/ 8d# 8f#	16.bb\LL)	.	.
.	(32ccc\K	.	.
8B`/ 8d# 8f#	16.bb\)	.	.
.	(32ccc\JJk	.	.
8B`/ 8d# 8f#	16.bb\LL)	.	.
.	(32aa\K	.	.
8B`/J 8d# 8f#	16.gg\)	.	.
.	(32ff#X\JJk	.	.
*	*	*v	*v
=34	=34	=34
8B`/L 8e 8g	16.ee\LL)	.
.	(32dd#X\K	.
8B`/ 8e 8g	16.ee\)	.
.	(32ff#X\JJk	.
8B`/ 8e 8g	16.gg\LL)	.
.	(32ff#\K	.
8B`/ 8e 8g	16.gg\)	.
.	(32aa\JJk	.
8B`/ 8e 8g	16.bb\LL)	.
.	(32aa\K	.
8B`/J 8e 8g	16.bb\)	.
.	(32gg\JJk	.
=35	=35	=35
8B`/L 8f#X 8a	16.aa\LL)	.
.	(32bb\K	.
8B`/ 8f# 8a	16.aa\)	.
.	(32gg\JJk	.
8B`/ 8f# 8a	16.ff#X\LL)	.
.	(32gg\K	.
8B`/ 8f# 8a	16.ff#\)	.
.	(32ee\JJk	.
8B`/ 8f# 8a	16.dd#X\LL)	.
.	(32ee\K	.
8B`/J 8f# 8a	16.ff#\)	.
.	(32dd#\JJk	.
=36	=36	=36
8B`/L 8e 8g	8ee`\L)	.
8B`/ 8e 8g	16r	.
.	(32.ee\LL	.
.	64ff#X\JJJk)	.
8B`/ 8e 8g	8gg`\L	.
8B`/ 8e 8g	16r	.
.	(32.gg\LL	.
.	64aa\JJJk)	.
8B`/ 8e 8g	8bb`\	.
8B`/J 8e 8g	8r	[[
!!LO:LB:g=original	!	!
=37	=37	=37
*	*	*^
*clefF4	*	*	*
!	!	!	!LO:DY:b=2
!	!	!LO:DY:t=sFz	!LO:DY:t=sFz
8D#X`\L 8F#X 8B	16.bb`\LL	sfz <	sfz
.	(32ccc\K	.	.
8D#`\ 8F# 8B	16.bb\)	.	.
.	(32ccc\JJk	.	.
8D#`\ 8F# 8B	16.bb\LL)	.	.
.	(32ccc\K	.	.
8D#`\ 8F# 8B	16.bb\)	.	.
.	(32ccc\JJk	.	.
8D#`\ 8F# 8B	16.bb\LL)	.	.
.	(32aa\K	.	.
8D#`\J 8F# 8B	16.gg\)	.	.
.	(32ff#X\JJk	.	.
*	*	*v	*v
=38	=38	=38
.	16qff/)	.
8E`\L 8G 8B	(16ee\LL	.
.	16dd#X\)	.
8E`\ 8G 8B	16ee`\	.
.	16ff#X`\JJ	.
8E`\ 8G 8B	(16gg\LL	.
.	16ff#\)	.
8E`\J 8G 8B	16gg`\	.
.	16aa`\JJ	.
8C`\L 8E 8A	(16bb\LL	.
.	16ccc\)	.
8C`\J 8E 8A	16dddn`\	.
.	16eee`\JJ	[[
=39	=39	=39
8Dn\ 8G 8B	(16eee\LL	>
.	16ddd\)	.
8r	16bb`\	]
.	16gg`\JJ	.
8D\ 8G 8B	(16eee\LL	>
.	16ddd\)	.
8r	16bb`\	]
.	16gg`\JJ	.
4D^<\ 4A 4c	(16ddd\LL	>
.	16ccc\)	.
.	16aa`\	]
.	16ff#X`\JJ	.
=40	=40	=40
!	!	!LO:DY:t=F
8D`\L 8G 8B	8ggS\L	f
8D`\J 8A 8c	16.bb\L	.
.	32aa\JJk	.
8r	(4ff#X\ 4aa	.
(8D\L 8A 8c	.	.
8G\J) 8B	8gg`\)	.
8r	(16.ee\LL	p
.	32ffn\JJk)	.
*clefG2	*	*
=41	=41	=41
8c`/ 8e 8g	8ee`\L 8gg	.
8r	(16.cc\L 16.ee	.
.	32dd\JJk) 32ff	.
8c`/ 8e 8g	8ee`\L 8gg	.
8r	(16.cc\L 16.ee	.
.	32dd\JJk) 32ff	.
8c`/L 8e 8g	8ee`\L 8gg	.
8c`/J 8f 8a	8ff`\J 8aa	.
=42	=42	=42
*^	*	*
[2e^/ [2g	[2c\	(4.ee^<\ 4.gg	.
.	.	8dd\) 8ff	.
!	!	!LO:TX:t=P:problem:mixed beam	!
!	!	!LO:TX:a:t=Corni	!
8e/] 8g]	8c\]	8cc`\L 8ee	.
8r	8ryy	(16.c/L 16.e	.
.	.	32d/JJk) 32f	.
*v	*v	*	*
*clefF4	*	*
!!LO:LB:g=original	!	!
=43	=43	=43
8C\ 8E 8G	8e`/L 8g	.
8r	(16.c/L 16.e	.
.	32d/JJk) 32f	.
8C\ 8E 8G	8e`/L 8g	.
8r	(16.c/L 16.e	.
.	32d/JJk) 32f	.
8C`\L 8E 8G	(16e/LL 16g	.
.	16c/) 16e	.
8C`\J 8F 8A	16e`^/ 16a	.
.	16f`/JJ 16a	.
=44	=44	=44
*^	*	*
[>2C^<\ [2E\ [2G	2ryy	8e`/ 8g	.
.	.	4e^/ 4g	.
!	!	!LO:TUP:b:problem:klamra łukowa	!
.	.	24f/LL 24a	.
.	.	24e/ 24g	.
.	.	24d/JJ 24f	.
8E/] 8G]	8C\]	8c`/ 8e	.
8r	8ryy	16.ee\LL	p
.	.	32ff\JJk	.
*v	*v	*	*
=45	=45	=45
*	*	*^
!	!LO:TX:b:t=marqué	!	!
!	!	!	!LO:DY:b=2
!	!	!	!LO:DY:t=sFz
8c^\L 8e	(16gg\LL	.	sfz
.	16ccc\)	.	.
8G\	16gg`\	.	.
.	16gg`\JJ	.	.
.	16qaa/	.	.
8c\ 8e	16gg`\LL	.	.
.	16ff#X`\	.	.
8G\	16gg`\	.	.
.	16aa`\JJ	.	.
8c\ 8e	16gg`\LL	.	.
.	16ff#`\	.	.
8G\J	16gg`\	.	.
.	16ee`\JJ	.	.
=46	=46	=46	=46
!	!	!	!LO:DY:b=2
!	!	!	!LO:DY:t=sFz
*tremolo	*	*	*
.	16qdd/	.	sfz
(8c\L 8e	16cc`\LL	.	.
.	16b`\	.	.
8G\	16cc`\	.	.
.	16dd`\JJ	.	.
8c\ 8e	16ee`\LL	.	.
.	16dd`\	.	.
8G\	16ee`\	.	.
.	16ffn`\JJ	.	.
8c\ 8e	16gg`\LL	.	.
.	16ff#X`\	.	.
8G\J)	16gg`\	.	.
.	16ee`\JJ	.	.
=47	=47	=47	=47
!	!	!	!LO:DY:b=2
!	!	!	!LO:DY:t=sFz
(8B\L 8fn	16ffn`\LL	.	sfz
.	16ee`\	.	.
8G\	16dd`\	.	.
.	16cc#X`\JJ	.	.
8B\ 8f	16dd`\LL	.	.
.	16cc#`\	.	.
8G\	16dd`\	.	.
.	16ee`\JJ	.	.
.	16qgg/	.	.
8B\ 8f	16ffn`\LL	.	.
.	16ee`\	.	.
8G\J)	16ff`\	.	.
.	16aa`\JJ	.	.
=48	=48	=48	=48
!	!	!	!LO:DY:b=2
!	!	!	!LO:DY:t=sFz
.	16qaa/	.	sfz
(8c\L 8e	(16gg\LL	.	.
.	16ff#X\)	.	.
8G\	16gg`\	.	.
.	16ccc`\JJ	.	.
8c\ 8e	4.gg^<\	.	.
8G\	.	.	.
8c\ 8e	.	.	.
8G\J)	(16.ee\LL	.	.
.	32ffn\JJk)	.	.
!!LO:LB:g=original	!	!	!
=49	=49	=49	=49
!	!	!	!LO:DY:b=2
!	!	!	!LO:DY:t=sFz
(8c\L 8e	(16gg\LL	.	sfz
.	16ccc\)	.	.
8G\	16gg`\	.	.
.	16gg`\JJ	.	.
.	16qqaa/	.	.
8c\ 8e	16gg`\LL	.	.
.	16ff#X`\	.	.
8G\	16gg`\	.	.
.	16aa`\JJ	.	.
8c\ 8e	16gg`\LL	.	.
.	16ff#`\	.	.
8G\J)	16gg`\	.	.
.	16ee`\JJ	.	.
=50	=50	=50	=50
!	!	!	!LO:DY:b=2
!	!	!	!LO:DY:t=sFz
.	16qqdd/	.	sfz
(8c\L 8e	16cc`\LL	.	.
.	16b`\	.	.
8G\	16cc`\	.	.
.	16dd`\JJ	.	.
8c\ 8e	16ee`\LL	.	.
.	16dd`\	.	.
8G\	16ee`\	.	.
.	16ffn`\JJ	.	.
8c\ 8e	16gg`\LL	.	.
.	16ff#X`\	.	.
8G\J)	16gg`\	.	.
.	16ee`\JJ	.	.
=51	=51	=51	=51
(2G^<\ 2B 2f	16ffn`\LL	>	.
.	(16ffsS\	.	.
.	16aa\	.	.
.	16ff\JJ	.	.
.	16ee\LL	.	.
.	16dd\	.	.
.	16ff\	.	.
.	16dd\JJ	.	.
4G\) 4B 4d	16cc\LL	.	.
.	16b\	.	.
.	16dd\	.	.
.	16f`\JJ)	]]	.
*	*	*v	*v
=52	=52	=52
4c\	(16e/LL	.
.	16g/	.
.	16cc/)	.
.	16d`/JJ 16f 16b	.
8ryy	(<4d/ 4f (4b	.
(8G\L	.	.
!	!LO:TX:b:B:t=Polonoise Da Capo.	!
8C\J)	4e/) 4cc)	.
8ryy	.	.
=:|!	=:|!	=:|!
*-	*-	*-
!!!system-decoration: {(s1,s2)}
!!!RDF**kern: > = above
!!!RDF**kern: < = below
!!!ENC: Andrzej Gręziak
!!!END: 2022-08-17
!!!ENC: Natalia Wrzos
!!!END: 2022-09-19
!!!YEC: Copyright 2022 Narodowy Instytut Fryderyka Chopina (https://polishscores.org)
!!!YEM: License CC-BY-4.0 (https://creativecommons.org/licenses/by/4.0)
